src/images/single-assets/stETH.svg

<svg xmlns="http://www.w3.org/2000/svg" width="512" height="512" fill="none"><path fill="#fff" d="M256 512c141.385 0 256-114.615 256-256S397.385 0 256 0 0 114.615 0 256s114.615 256 256 256"/><path fill="#00A3FF" d="m150.988 237.812-2.866 4.397c-32.326 49.589-25.106 114.533 17.358 156.139 24.981 24.478 57.722 36.718 90.464 36.721z"/><path fill="#00A3FF" d="m255.914 297.764-104.956-59.952 104.956 197.257zM361.012 237.812l2.866 4.397c32.326 49.589 25.106 114.533-17.358 156.139-24.981 24.478-57.722 36.718-90.464 36.721z" opacity=".6"/><path fill="#00A3FF" d="M256.044 297.764 361 237.812 256.044 435.069zM256.083 163.833v103.4l90.408-51.666z" opacity=".2"/><path fill="#00A3FF" d="m256.056 163.833-90.473 51.732 90.473 51.668z" opacity=".6"/><path fill="#00A3FF" d="m256.056 76.875-90.473 138.724 90.473-51.877z"/><path fill="#00A3FF" d="m256.083 163.706 90.477 51.879-90.477-138.793z" opacity=".6"/></svg>

<svg width="512" height="512" viewBox="0 0 512 512" fill="none" xmlns="http://www.w3.org/2000/svg">
<path d="M256 512C397.385 512 512 397.385 512 256C512 114.615 397.385 0 256 0C114.615 0 0 114.615 0 256C0 397.385 114.615 512 256 512Z" fill="white"/>
<path d="M150.988 237.812L148.122 242.209C115.796 291.798 123.016 356.742 165.48 398.348C190.461 422.826 223.202 435.066 255.944 435.069C255.944 435.069 255.944 435.069 150.988 237.812Z" fill="#00A3FF"/>
<path opacity="0.6" d="M255.914 297.764L150.958 237.812C255.914 435.069 255.914 435.069 255.914 435.069C255.914 392.108 255.914 342.88 255.914 297.764Z" fill="#00A3FF"/>
<path opacity="0.6" d="M361.012 237.812L363.878 242.209C396.204 291.798 388.984 356.742 346.52 398.348C321.539 422.826 288.798 435.066 256.056 435.069C256.056 435.069 256.056 435.069 361.012 237.812Z" fill="#00A3FF"/>
<path opacity="0.2" d="M256.044 297.764L361 237.812C256.045 435.069 256.044 435.069 256.044 435.069C256.044 392.108 256.044 342.88 256.044 297.764Z" fill="#00A3FF"/>
<path opacity="0.2" d="M256.083 163.833V267.233L346.491 215.567L256.083 163.833Z" fill="#00A3FF"/>
<path opacity="0.6" d="M256.056 163.833L165.583 215.565L256.056 267.233V163.833Z" fill="#00A3FF"/>
<path d="M256.056 76.875L165.583 215.599L256.056 163.722V76.875Z" fill="#00A3FF"/>
<path opacity="0.6" d="M256.083 163.706L346.56 215.585L256.083 76.7917V163.706Z" fill="#00A3FF"/>
</svg>
